src/pos-icons/arrow-up-bold-outline.svg

<svg height="24" viewBox="0 0 24 24" width="24" xmlns="http://www.w3.org/2000/svg"><path d="m16 13v8h-8v-8h-6l10-10 10 10zm-9-2h3v8h4v-8h3l-5-5z"/></svg>

<?xml version="1.0" encoding="UTF-8"?><!DOCTYPE svg PUBLIC "-//W3C//DTD SVG 1.1//EN" "http://www.w3.org/Graphics/SVG/1.1/DTD/svg11.dtd"><svg xmlns="http://www.w3.org/2000/svg" xmlns:xlink="http://www.w3.org/1999/xlink" version="1.1" id="mdi-arrow-up-bold-outline" width="24" height="24" viewBox="0 0 24 24"><path d="M16,13V21H8V13H2L12,3L22,13H16M7,11H10V19H14V11H17L12,6L7,11Z" /></svg>
